X: 42
T: No_139_Sitting_with_the_Turtle.krn
%%abc-version 2.0
%%abcx-abcm2ps-target-version 5.9.1 (29 Sep 2008)
%%abc-creator hum2abc beta
%%abcx-conversion-date 2020/08/10 18:54:57
%%gracespace 0 6 6
%%humdrum-veritas 981293872
%%humdrum-veritas-data 2410977802
%%linebreak <none>
%%barnumbers 0
L: 1/8
M: 2/4
%%staves {1 2}
V: 1 clef=bass
V: 2 clef=bass
K: Gb
[V:1] [K:clef=bass][M:2/4]E/E/E/>E/ D/B,B,/ | 
[V:2] [K:clef=bass][M:2/4]G,,G,, G,,G,, | 
[V:1] B,2B,3/D/ ||  
[V:2] G,,G,, G,,G,, ||  
[V:1] [M:3/4]D4-DD ||  
[V:2] [M:3/4]z6 ||  
[V:1] [M:2/4]D>D DB, | 
[V:2] [M:2/4]z4 | 
[V:1] B,2B,3/B,/ ||  
[V:2] z4 ||  
[V:1] [M:3/4]B,6 ||  
[V:2] [M:3/4]z6 ||  
[V:1] [M:2/4]D/B,/D/>D/ B,G, | 
[V:2] [M:2/4]z4 | 
[V:1] G,<E, E,3/E,/ ||  
[V:2] z4 ||  
[V:1] [M:3/4]E,4-E,E, ||  
[V:2] [M:3/4]z6 ||  
[V:1] [M:2/4]D,>D, D,/B,,3/ | 
[V:2] [M:2/4]z4 | 
[V:1] B,,2B,,3/D,/ ||  
[V:2] z4 ||  
[V:1] [M:3/4]D,4-D,3/D,/ ||  
[V:2] [M:3/4]z6 ||  
[V:1] [M:2/4]D,>D, D,/B,,3/ | 
[V:2] [M:2/4]z4 | 
[V:1] B,,2B,,3/B,,/ | 
[V:2] z4 | 
[V:1] B,,4 |]  
[V:2] z4 |]  


